X:1
T: The Molly Andrew
N:
C:"Saturday Morning Waltz" Dave Wiesler
S:
A:
O:
R:
M:3/4
K:G
I:speed 150
%W: A1
% voice 1 (1 lines, 24 notes)
K:G
M:3/4
L:1/16
G2 A2 |B8 d4 |A8 G2 A2 |B4 g4 f4 |d8 A2 B2 |c8 B4 |A6 G2 =F4 |E2 B2 B8|B8 G2 A2 |
%W: A2
% voice 1 (1 lines, 22 notes)
B8 d4 |A8 G2 A2 |B4 g4 f4 |d8 e2 f2 |g4 f4 e4 |d2 B2B6 d2 |e12|e8 b2 a2 |
%W: B1
% voice 1 (1 lines, 25 notes)
b4 e6 g2 |f2 B6 c2 B2 |A4 e4 g4 |d6 f2 g2 a2 |b4 e6 g2 |f2 B6 c2 B2 |A12|A8 G2 A2 |
%W: B2
% voice 1 (1 lines, 20 notes)
B8 d4 |A8 G2 A2 |B4 d4 f4 |g8 f2 e2 |d2 g2g6 B2 |A2 d6 F4 |G12|G8 ||
